Suru++-Ubuntu/apps/scalable/credentials-preferences.svg

<svg width="256" height="256" version="1.1" viewBox="0 0 67.73 67.73" xmlns="http://www.w3.org/2000/svg" xmlns:xlink="http://www.w3.org/1999/xlink">
 <defs>
  <linearGradient id="linearGradient1108" x1="296" x2="296" y1="-212" y2="236" gradientUnits="userSpaceOnUse">
   <stop style="stop-color:#ffffff" offset="0"/>
   <stop style="stop-color:#ffffff;stop-opacity:.09803922" offset=".125"/>
   <stop style="stop-color:#000000;stop-opacity:.09803922" offset=".925"/>
   <stop style="stop-color:#000000;stop-opacity:.49803922" offset="1"/>
  </linearGradient>
  <clipPath id="clipPath1082-3-367">
   <path d="M 361.9375,-212 C 507.2348,-212 528,-191.28677 528,-46.125 V 70.125 C 528,215.28618 507.2348,236 361.9375,236 H 214.0625 C 68.7652,236 48,215.28618 48,70.125 V -46.125 C 48,-191.28677 68.7652,-212 214.0625,-212 Z" style="fill:#8c59d9"/>
  </clipPath>
  <clipPath id="clipPath1221-5">
   <path d="M 188.96875,44 C 261.6174,44 272,54.356615 272,126.9375 v 58.125 C 272,257.64309 261.6174,268 188.96875,268 h -73.9375 C 42.3826,268 32,257.64309 32,185.0625 v -58.125 C 32,54.356615 42.3826,44 115.03125,44 Z" style="fill:#da1636;opacity:.1"/>
  </clipPath>
  <filter id="filter1128" x="-.81" y="-.81" width="2.62" height="2.62" style="color-interpolation-filters:sRGB">
   <feGaussianBlur stdDeviation="2.7"/>
  </filter>
  <filter id="filter1132" x="-.81" y="-.81" width="2.62" height="2.62" style="color-interpolation-filters:sRGB">
   <feGaussianBlur stdDeviation="2.7"/>
  </filter>
  <filter id="filter1136" x="-.81" y="-.81" width="2.62" height="2.62" style="color-interpolation-filters:sRGB">
   <feGaussianBlur stdDeviation="2.7"/>
  </filter>
  <filter id="filter1140" x="-.81" y="-.81" width="2.62" height="2.62" style="color-interpolation-filters:sRGB">
   <feGaussianBlur stdDeviation="2.7"/>
  </filter>
  <clipPath id="clipPath936-2">
   <path d="M 329.9375,16 C 475.2348,16 496,36.71323 496,181.875 v 116.25 C 496,443.28618 475.2348,464 329.9375,464 H 182.0625 C 36.7652,464 16,443.28618 16,298.125 V 181.875 C 16,36.71323 36.7652,16 182.0625,16 Z" style="fill:#438ae9"/>
  </clipPath>
  <linearGradient id="linearGradient1048" x1="24" x2="280" y1="28" y2="284" gradientTransform="matrix(.26458333 0 0 .26458333 -6.993468 221.97263)" gradientUnits="userSpaceOnUse">
   <stop style="stop-color:#8c59d9" offset="0"/>
   <stop style="stop-color:#a7a7f1" offset="1"/>
  </linearGradient>
  <filter id="filter4569" x="-.01" y="-.01" width="1.023" height="1.025" style="color-interpolation-filters:sRGB">
   <feGaussianBlur stdDeviation="1.16"/>
  </filter>
  <filter id="filter1029" x="-.02" y="-.03" width="1.046" height="1.05" style="color-interpolation-filters:sRGB">
   <feGaussianBlur stdDeviation="2.32"/>
  </filter>
 </defs>
 <g transform="translate(0,-229.26666)">
  <path transform="matrix(.26458333 0 0 .26458333 0 229.26666)" d="m5.5683594 101.36914v56.125c0 9.07258 0.1620995 17.17296 0.5878906 24.40234 0.2128956 3.6147 0.4922655 7.01124 0.8496094 10.20313 0.3573439 3.19188 0.7931865 6.18021 1.3203125 8.97461 0.5271259 2.7944 1.1449457 5.39611 1.8671871 7.81836 0.722242 2.42224 1.547544 4.66482 2.490235 6.74023s2.002932 3.98243 3.191406 5.73633c1.188474 1.75391 2.505252 3.35478 3.964844 4.8125 1.459591 1.45773 3.062317 2.77212 4.818359 3.95898 1.756042 1.18687 3.666314 2.24617 5.744141 3.1875 2.077826 0.94134 4.323102 1.7652 6.748047 2.48633 2.424944 0.72114 5.028775 1.33898 7.826171 1.86524 2.797397 0.52626 5.787241 0.96165 8.982422 1.31836 3.195182 0.3567 6.596543 0.63518 10.214844 0.84765 7.236602 0.42496 15.3447 0.58594 24.425781 0.58594h73.937501c9.08108 0 17.18918-0.16098 24.42578-0.58594 3.6183-0.21247 7.01771-0.49095 10.21289-0.84765 3.19518-0.35671 6.18503-0.7921 8.98242-1.31836 2.7974-0.52626 5.40318-1.1441 7.82813-1.86524 2.42494-0.72113 4.67022-1.54499 6.74805-2.48633 2.07782-0.94133 3.98809-2.00063 5.74414-3.1875 1.75604-1.18686 3.35681-2.50125 4.8164-3.95898 1.45959-1.45772 2.77832-3.05859 3.9668-4.8125 1.18847-1.7539 2.24676-3.66092 3.18945-5.73633s1.76995-4.31799 2.49219-6.74023c0.72224-2.42225 1.34006-5.02396 1.86719-7.81836 0.52712-2.7944 0.96297-5.78273 1.32031-8.97461 0.35734-3.19189 0.63671-6.58843 0.84961-10.20313 0.42579-7.22938 0.58789-15.32976 0.58789-24.40234v-56.125c0-72.580888-10.3826-82.937499-83.03125-82.937499h-73.937501c-72.648653 0-83.03125 10.356611-83.03125 82.937499z" style="filter:url(#filter1029);opacity:.2"/>
  <path transform="matrix(.26458333 0 0 .26458333 -1.8735229e-8 232.67026)" d="m162.53675 3.5680001c72.64865 0 83.03125 10.356615 83.03125 82.937505v58.125005c0 72.58059-10.3826 82.9375-83.03125 82.9375h-73.937496c-72.648654 0-83.031254-10.35691-83.031254-82.9375v-58.125005c0-72.58089 10.3826-82.937505 83.031254-82.937505z" style="filter:url(#filter4569);opacity:.1"/>
  <path d="m43.004513 233.61429c19.221622 0 21.968685 2.74019 21.968685 21.94388v15.37891c0 19.20362-2.747063 21.94388-21.968685 21.94388h-19.56263c-19.221622 0-21.968685-2.74026-21.968685-21.94388v-15.37891c0-19.20369 2.7470629-21.94388 21.968685-21.94388z" style="fill:url(#linearGradient1048)"/>
  <g transform="matrix(.13229167 0 0 .13229167 -.64346822 231.49763)" clip-path="url(#clipPath936-2)" style="enable-background:new;fill:#ffffff;opacity:.4">
   <g transform="matrix(1.5675676,0,0,1.5675676,-1030.1622,795.05406)" style="fill:#ffffff;opacity:.6">
    <path transform="matrix(1.275862,0,0,1.275862,660.27533,-517.94773)" d="m62.628906 239.7168c0.537338 0.03519 0.997659 0.09677 1.544922 0.1289 0.424157 0.02491 1.001475 0.01204 1.431641 0.03516l-0.03711-7.44922 26-24v-8l12.000001-12v-6l6-6v-16l-8-8h-16.000001l-8-8h-20l-8 8v20l16.052735 14.06836-0.052735 17.93164-6 6v26l3.060547 3.28516z" style="fill:#ffffff"/>
    <path transform="matrix(1.275862,0,0,1.275862,660.27533,-517.94773)" d="m97.568359 84.431641-6 6h6l2 2h2.000001l2-2-6.000001-6z" style="fill:#ffffff"/>
    <path transform="matrix(1.275862,0,0,1.275862,660.27533,-517.94773)" d="m16.216797 35.080078c-0.104286 0.148777-0.239436 0.263003-0.341797 0.414063-1.188474 1.753902-2.248715 3.66287-3.191406 5.738281s-1.767993 4.317989-2.490235 6.740234c-0.7222414 2.422245-1.3400612 5.023955-1.8671871 7.81836-0.527126 2.794404-0.9629686 5.780765-1.3203125 8.972656s-0.6367138 6.588422-0.8496094 10.203125c-0.4257911 7.229405-0.5878906 15.329734-0.5878906 24.402344v21.062499l7.9999996 8h12l20 20v-24l12-12h8l12-12h12l-6-5.999999 12-14-12-12h-18v16h-8l-8-8v-8l12-12h10v-8l-12-12h-20v12h-10l-13.351562-13.351563z" style="fill:#ffffff"/>
    <path d="m881.72414-374.5h-30.62069l-17.86206 17.86207v25.51724l12.75862 12.75862h17.86207l7.65517 7.65518v7.65517l5.10345 5.10345v30.62069l19.37931 20.48276 32-32-0.34483-29.31035 25.51724-25.51724h-10.2069l-25.51724-25.51724v-10.2069h-30.62069z" style="fill:#ffffff"/>
    <path transform="matrix(1.275862,0,0,1.275862,660.27533,-517.94773)" d="m245.56836 120.43164v-21.062499c0-9.07261-0.1621-17.172939-0.58789-24.402344-0.2129-3.614703-0.49227-7.011234-0.84961-10.203125s-0.79319-6.178252-1.32031-8.972656c-0.52713-2.794405-1.14495-5.396115-1.86719-7.81836s-1.5495-4.664823-2.49219-6.740234c-0.60009-1.321158-1.33342-2.463336-2.03125-3.652344l-2.85156 2.851563h-12l-12 12-8-8h-24l-12 12v10h12v-6h8v8l-4 4-16 0.271484-6 5.728516h-8v8l-6 6v11.999999h12l8-7.999999h8v3.999999l8 8h4v-4l-8-7.999999h8l8 7.999999h10l-6-5.999999 6-6h6l6 6h-6l-6 5.999999 5.89062 5.89258 0.10938 6.10742h-8l24 24h4l12-12-8-8h12z" style="fill:#ffffff"/>
    <path d="m856.2069-422.98275v-7.65518l7.65518-7.65517v15.31035z" style="fill:#ffffff"/>
    <path d="m935.31035-272.43103v-16l10.2069-9.51724v25.51724z" style="fill:#ffffff"/>
    <path transform="matrix(1.275862,0,0,1.275862,660.27533,-517.94773)" d="m133.56836 16.431641h-44.968751c-0.771166 0-1.317022 0.048385-2.074218 0.050781l-6.957032 7.949219 12 12v12.541015l14.000001 15.458985h8v-8l12-12v-8l8-8v-12z" style="fill:#ffffff"/>
    <path transform="matrix(1.275862,0,0,1.275862,660.27533,-517.94773)" d="m65.568359 16.986328c-0.418854 0.022565-0.981377 0.008942-1.394531 0.033203-3.618301 0.212474-7.019662 0.489003-10.214844 0.845703-3.195181 0.356701-6.185025 0.792107-8.982422 1.31836-2.498598 0.470042-4.78985 1.041582-6.990234 1.666015l7.582031 7.582032h20v-11.445313z" style="fill:#ffffff"/>
    <path d="m817.93104-440.84482h7.65518l7.65517 7.65517-15.31035 1e-5z" style="fill:#ffffff"/>
    <path d="m749.03449-356.63794h-7.65518l-7.65517 7.65517 15.31035 1e-5z" style="fill:#ffffff"/>
   </g>
  </g>
  <g transform="matrix(.26458333 0 0 .26458333 -6.993468 221.97263)" clip-path="url(#clipPath1221-5)" style="enable-background:new">
   <circle cx="98" cy="134" r="4" style="fill:#ffffff"/>
   <circle cx="118" cy="214" r="4" style="fill:#ffffff"/>
   <circle cx="178" cy="174" r="4" style="fill:#ffffff"/>
   <circle cx="198" cy="114" r="4" style="fill:#ffffff"/>
   <path d="m32 168c67.114555-48.15579 148-56 240-58" style="fill:none;opacity:.5;stroke-width:2;stroke:#ffffff"/>
   <path d="m33.542169 91.046465c20.574248 14.762355 40.900453 28.825555 63.986426 42.999625 52.221995 32.06268 110.67438 58.37975 174.4714 59.76664" style="fill:none;opacity:.5;stroke-width:2;stroke:#ffffff"/>
   <path d="m178.50005 171.00002c19.71451-42.25774 31.75105-77.101623 26.73368-126.66267" style="fill:none;opacity:.5;stroke-width:2;stroke:#ffffff"/>
   <path d="m163.82273 267.66265c-68.60872-51.34432-74.122071-122.88592-62.2988-223.3253" style="fill:none;opacity:.5;stroke-width:2;stroke:#ffffff"/>
   <circle cx="98" cy="134" r="4" style="fill:#ffffff;filter:url(#filter1128)"/>
   <circle cx="118" cy="214" r="4" style="fill:#ffffff;filter:url(#filter1132)"/>
   <circle cx="178" cy="174" r="4" style="fill:#ffffff;filter:url(#filter1136)"/>
   <circle cx="198" cy="114" r="4" style="fill:#ffffff;filter:url(#filter1140)"/>
   <path d="m177.43876 173.81273c-43.55156 54.49328-132.90264 55.93636-143.87116 49.07227" style="fill:none;opacity:.5;stroke-width:2;stroke:#ffffff"/>
  </g>
  <path transform="matrix(.13229167 0 0 .13229167 -4.876802 261.66013)" d="M 361.9375,-212 C 507.2348,-212 528,-191.28677 528,-46.125 V 70.125 C 528,215.28618 507.2348,236 361.9375,236 H 214.0625 C 68.7652,236 48,215.28618 48,70.125 V -46.125 C 48,-191.28677 68.7652,-212 214.0625,-212 Z" clip-path="url(#clipPath1082-3-367)" style="fill:none;opacity:.4;stroke-linecap:round;stroke-linejoin:round;stroke-width:8;stroke:url(#linearGradient1108)"/>
 </g>
</svg>

<svg xmlns="http://www.w3.org/2000/svg" xmlns:xlink="http://www.w3.org/1999/xlink" width="256" height="256" version="1.1" viewBox="0 0 67.73 67.73">
 <defs>
  <linearGradient id="linearGradient1108" x1="296" x2="296" y1="-212" y2="236" gradientUnits="userSpaceOnUse" xlink:href="#linearGradient1013"/>
  <linearGradient id="linearGradient1013">
   <stop offset="0" style="stop-color:#ffffff"/>
   <stop style="stop-color:#ffffff;stop-opacity:0.09803922" offset=".125"/>
   <stop style="stop-color:#000000;stop-opacity:0.09803922" offset=".925"/>
   <stop offset="1" style="stop-color:#000000;stop-opacity:0.49803922"/>
  </linearGradient>
  <clipPath id="clipPath1082-3-367" clipPathUnits="userSpaceOnUse">
   <path d="M 361.9375,-212 C 507.2348,-212 528,-191.28677 528,-46.125 V 70.125 C 528,215.28618 507.2348,236 361.9375,236 H 214.0625 C 68.7652,236 48,215.28618 48,70.125 V -46.125 C 48,-191.28677 68.7652,-212 214.0625,-212 Z" style="fill:#8c59d9"/>
  </clipPath>
  <clipPath id="clipPath1221-5" clipPathUnits="userSpaceOnUse">
   <path d="M 188.96875,44 C 261.6174,44 272,54.356615 272,126.9375 v 58.125 C 272,257.64309 261.6174,268 188.96875,268 h -73.9375 C 42.3826,268 32,257.64309 32,185.0625 v -58.125 C 32,54.356615 42.3826,44 115.03125,44 Z" style="opacity:0.1;fill:#da1636"/>
  </clipPath>
  <filter style="color-interpolation-filters:sRGB" id="filter1128" width="2.62" height="2.62" x="-.81" y="-.81">
   <feGaussianBlur stdDeviation="2.7"/>
  </filter>
  <filter style="color-interpolation-filters:sRGB" id="filter1132" width="2.62" height="2.62" x="-.81" y="-.81">
   <feGaussianBlur stdDeviation="2.7"/>
  </filter>
  <filter style="color-interpolation-filters:sRGB" id="filter1136" width="2.62" height="2.62" x="-.81" y="-.81">
   <feGaussianBlur stdDeviation="2.7"/>
  </filter>
  <filter style="color-interpolation-filters:sRGB" id="filter1140" width="2.62" height="2.62" x="-.81" y="-.81">
   <feGaussianBlur stdDeviation="2.7"/>
  </filter>
  <clipPath id="clipPath936-2" clipPathUnits="userSpaceOnUse">
   <path d="M 329.9375,16 C 475.2348,16 496,36.71323 496,181.875 v 116.25 C 496,443.28618 475.2348,464 329.9375,464 H 182.0625 C 36.7652,464 16,443.28618 16,298.125 V 181.875 C 16,36.71323 36.7652,16 182.0625,16 Z" style="fill:#438ae9"/>
  </clipPath>
  <linearGradient id="linearGradient1048" x1="24" x2="280" y1="28" y2="284" gradientTransform="matrix(0.26458333,0,0,0.26458333,-6.993468,221.97263)" gradientUnits="userSpaceOnUse" xlink:href="#linearGradient4195"/>
  <linearGradient id="linearGradient4195">
   <stop style="stop-color:#8c59d9" offset="0"/>
   <stop style="stop-color:#a7a7f1" offset="1"/>
  </linearGradient>
  <filter style="color-interpolation-filters:sRGB" id="filter4569" width="1.023" height="1.025" x="-.01" y="-.01">
   <feGaussianBlur stdDeviation="1.16"/>
  </filter>
  <filter style="color-interpolation-filters:sRGB" id="filter1029" width="1.046" height="1.05" x="-.02" y="-.03">
   <feGaussianBlur stdDeviation="2.32"/>
  </filter>
 </defs>
 <g transform="translate(0,-229.26666)">
  <path style="opacity:0.2;filter:url(#filter1029)" d="M 5.5683594 101.36914 L 5.5683594 157.49414 C 5.5683594 166.56672 5.7304589 174.6671 6.15625 181.89648 C 6.3691456 185.51118 6.6485155 188.90772 7.0058594 192.09961 C 7.3632033 195.29149 7.7990459 198.27982 8.3261719 201.07422 C 8.8532978 203.86862 9.4711176 206.47033 10.193359 208.89258 C 10.915601 211.31482 11.740903 213.5574 12.683594 215.63281 C 13.626285 217.70822 14.686526 219.61524 15.875 221.36914 C 17.063474 223.12305 18.380252 224.72392 19.839844 226.18164 C 21.299435 227.63937 22.902161 228.95376 24.658203 230.14062 C 26.414245 231.32749 28.324517 232.38679 30.402344 233.32812 C 32.48017 234.26946 34.725446 235.09332 37.150391 235.81445 C 39.575335 236.53559 42.179166 237.15343 44.976562 237.67969 C 47.773959 238.20595 50.763803 238.64134 53.958984 238.99805 C 57.154166 239.35475 60.555527 239.63323 64.173828 239.8457 C 71.41043 240.27066 79.518528 240.43164 88.599609 240.43164 L 162.53711 240.43164 C 171.61819 240.43164 179.72629 240.27066 186.96289 239.8457 C 190.58119 239.63323 193.9806 239.35475 197.17578 238.99805 C 200.37096 238.64134 203.36081 238.20595 206.1582 237.67969 C 208.9556 237.15343 211.56138 236.53559 213.98633 235.81445 C 216.41127 235.09332 218.65655 234.26946 220.73438 233.32812 C 222.8122 232.38679 224.72247 231.32749 226.47852 230.14062 C 228.23456 228.95376 229.83533 227.63937 231.29492 226.18164 C 232.75451 224.72392 234.07324 223.12305 235.26172 221.36914 C 236.45019 219.61524 237.50848 217.70822 238.45117 215.63281 C 239.39386 213.5574 240.22112 211.31482 240.94336 208.89258 C 241.6656 206.47033 242.28342 203.86862 242.81055 201.07422 C 243.33767 198.27982 243.77352 195.29149 244.13086 192.09961 C 244.4882 188.90772 244.76757 185.51118 244.98047 181.89648 C 245.40626 174.6671 245.56836 166.56672 245.56836 157.49414 L 245.56836 101.36914 C 245.56836 28.788252 235.18576 18.431641 162.53711 18.431641 L 88.599609 18.431641 C 15.950956 18.431641 5.5683594 28.788252 5.5683594 101.36914 z" transform="matrix(0.26458333,0,0,0.26458333,0,229.26666)"/>
  <path d="m 162.53675,3.5680001 c 72.64865,0 83.03125,10.3566149 83.03125,82.9375049 v 58.125005 c 0,72.58059 -10.3826,82.9375 -83.03125,82.9375 H 88.599254 C 15.9506,227.56801 5.568,217.2111 5.568,144.63051 V 86.505505 c 0,-72.58089 10.3826,-82.9375049 83.031254,-82.9375049 z" transform="matrix(0.26458333,0,0,0.26458333,-1.8735229e-8,232.67026)" style="opacity:0.1;filter:url(#filter4569)"/>
  <path style="fill:url(#linearGradient1048)" d="m 43.004513,233.61429 c 19.221622,0 21.968685,2.74019 21.968685,21.94388 v 15.37891 c 0,19.20362 -2.747063,21.94388 -21.968685,21.94388 h -19.56263 c -19.2216217,0 -21.9686846,-2.74026 -21.9686846,-21.94388 v -15.37891 c 0,-19.20369 2.7470629,-21.94388 21.9686846,-21.94388 z"/>
  <g style="opacity:0.4;fill:#ffffff;enable-background:new" clip-path="url(#clipPath936-2)" transform="matrix(0.13229167,0,0,0.13229167,-0.64346822,231.49763)">
   <g transform="matrix(1.5675676,0,0,1.5675676,-1030.1622,795.05406)" style="opacity:0.6;fill:#ffffff">
    <path style="fill:#ffffff" d="M 62.628906 239.7168 C 63.166244 239.75199 63.626565 239.81357 64.173828 239.8457 C 64.597985 239.87061 65.175303 239.85774 65.605469 239.88086 L 65.568359 232.43164 L 91.568359 208.43164 L 91.568359 200.43164 L 103.56836 188.43164 L 103.56836 182.43164 L 109.56836 176.43164 L 109.56836 160.43164 L 101.56836 152.43164 L 85.568359 152.43164 L 77.568359 144.43164 L 57.568359 144.43164 L 49.568359 152.43164 L 49.568359 172.43164 L 65.621094 186.5 L 65.568359 204.43164 L 59.568359 210.43164 L 59.568359 236.43164 L 62.628906 239.7168 z" transform="matrix(1.275862,0,0,1.275862,660.27533,-517.94773)"/>
    <path style="fill:#ffffff" d="M 97.568359 84.431641 L 91.568359 90.431641 L 97.568359 90.431641 L 99.568359 92.431641 L 101.56836 92.431641 L 103.56836 90.431641 L 97.568359 84.431641 z" transform="matrix(1.275862,0,0,1.275862,660.27533,-517.94773)"/>
    <path style="fill:#ffffff" d="M 16.216797 35.080078 C 16.112511 35.228855 15.977361 35.343081 15.875 35.494141 C 14.686526 37.248043 13.626285 39.157011 12.683594 41.232422 C 11.740903 43.307833 10.915601 45.550411 10.193359 47.972656 C 9.4711176 50.394901 8.8532978 52.996611 8.3261719 55.791016 C 7.7990459 58.58542 7.3632033 61.571781 7.0058594 64.763672 C 6.6485155 67.955563 6.3691456 71.352094 6.15625 74.966797 C 5.7304589 82.196202 5.5683594 90.296531 5.5683594 99.369141 L 5.5683594 120.43164 L 13.568359 128.43164 L 25.568359 128.43164 L 45.568359 148.43164 L 45.568359 124.43164 L 57.568359 112.43164 L 65.568359 112.43164 L 77.568359 100.43164 L 89.568359 100.43164 L 83.568359 94.431641 L 95.568359 80.431641 L 83.568359 68.431641 L 65.568359 68.431641 L 65.568359 84.431641 L 57.568359 84.431641 L 49.568359 76.431641 L 49.568359 68.431641 L 61.568359 56.431641 L 71.568359 56.431641 L 71.568359 48.431641 L 59.568359 36.431641 L 39.568359 36.431641 L 39.568359 48.431641 L 29.568359 48.431641 L 16.216797 35.080078 z" transform="matrix(1.275862,0,0,1.275862,660.27533,-517.94773)"/>
    <path d="m 881.72414,-374.5 h -30.62069 l -17.86206,17.86207 v 25.51724 l 12.75862,12.75862 h 17.86207 l 7.65517,7.65518 v 7.65517 l 5.10345,5.10345 v 30.62069 l 19.37931,20.48276 32,-32 -0.34483,-29.31035 25.51724,-25.51724 h -10.2069 l -25.51724,-25.51724 v -10.2069 h -30.62069 z" style="fill:#ffffff"/>
    <path style="fill:#ffffff" d="M 245.56836 120.43164 L 245.56836 99.369141 C 245.56836 90.296531 245.40626 82.196202 244.98047 74.966797 C 244.76757 71.352094 244.4882 67.955563 244.13086 64.763672 C 243.77352 61.571781 243.33767 58.58542 242.81055 55.791016 C 242.28342 52.996611 241.6656 50.394901 240.94336 47.972656 C 240.22112 45.550411 239.39386 43.307833 238.45117 41.232422 C 237.85108 39.911264 237.11775 38.769086 236.41992 37.580078 L 233.56836 40.431641 L 221.56836 40.431641 L 209.56836 52.431641 L 201.56836 44.431641 L 177.56836 44.431641 L 165.56836 56.431641 L 165.56836 66.431641 L 177.56836 66.431641 L 177.56836 60.431641 L 185.56836 60.431641 L 185.56836 68.431641 L 181.56836 72.431641 L 165.56836 72.703125 L 159.56836 78.431641 L 151.56836 78.431641 L 151.56836 86.431641 L 145.56836 92.431641 L 145.56836 104.43164 L 157.56836 104.43164 L 165.56836 96.431641 L 173.56836 96.431641 L 173.56836 100.43164 L 181.56836 108.43164 L 185.56836 108.43164 L 185.56836 104.43164 L 177.56836 96.431641 L 185.56836 96.431641 L 193.56836 104.43164 L 203.56836 104.43164 L 197.56836 98.431641 L 203.56836 92.431641 L 209.56836 92.431641 L 215.56836 98.431641 L 209.56836 98.431641 L 203.56836 104.43164 L 209.45898 110.32422 L 209.56836 116.43164 L 201.56836 116.43164 L 225.56836 140.43164 L 229.56836 140.43164 L 233.56836 136.43164 L 241.56836 128.43164 L 233.56836 120.43164 L 245.56836 120.43164 z" transform="matrix(1.275862,0,0,1.275862,660.27533,-517.94773)"/>
    <path d="m 856.2069,-422.98275 v -7.65518 l 7.65518,-7.65517 v 15.31035 z" style="fill:#ffffff"/>
    <path style="fill:#ffffff" d="m 935.31035,-272.43103 v -16 l 10.2069,-9.51724 v 25.51724 z"/>
    <path style="fill:#ffffff" d="M 133.56836 16.431641 L 88.599609 16.431641 C 87.828443 16.431641 87.282587 16.480026 86.525391 16.482422 L 79.568359 24.431641 L 91.568359 36.431641 L 91.568359 48.972656 L 105.56836 64.431641 L 113.56836 64.431641 L 113.56836 56.431641 L 125.56836 44.431641 L 125.56836 36.431641 L 133.56836 28.431641 L 133.56836 16.431641 z" transform="matrix(1.275862,0,0,1.275862,660.27533,-517.94773)"/>
    <path style="fill:#ffffff" d="M 65.568359 16.986328 C 65.149505 17.008893 64.586982 16.99527 64.173828 17.019531 C 60.555527 17.232005 57.154166 17.508534 53.958984 17.865234 C 50.763803 18.221935 47.773959 18.657341 44.976562 19.183594 C 42.477964 19.653636 40.186712 20.225176 37.986328 20.849609 L 45.568359 28.431641 L 65.568359 28.431641 L 65.568359 16.986328 z" transform="matrix(1.275862,0,0,1.275862,660.27533,-517.94773)"/>
    <path style="fill:#ffffff" d="m 817.93104,-440.84482 h 7.65518 l 7.65517,7.65517 -15.31035,10e-6 z"/>
    <path d="m 749.03449,-356.63794 h -7.65518 l -7.65517,7.65517 15.31035,1e-5 z" style="fill:#ffffff"/>
   </g>
  </g>
  <g style="enable-background:new" clip-path="url(#clipPath1221-5)" transform="matrix(0.26458333,0,0,0.26458333,-6.993468,221.97263)">
   <circle cx="98" cy="134" r="4" style="fill:#ffffff"/>
   <circle style="fill:#ffffff" cx="118" cy="214" r="4"/>
   <circle cx="178" cy="174" r="4" style="fill:#ffffff"/>
   <circle style="fill:#ffffff" cx="198" cy="114" r="4"/>
   <path d="M 32,168 C 99.114555,119.84421 180,112 272,110" style="opacity:0.5;fill:none;stroke:#ffffff;stroke-width:2"/>
   <path style="opacity:0.5;fill:none;stroke:#ffffff;stroke-width:2" d="M 33.542169,91.046465 C 54.116417,105.80882 74.442622,119.87202 97.528595,134.04609 149.75059,166.10877 208.20298,192.42584 272,193.81273"/>
   <path d="M 178.50005,171.00002 C 198.21456,128.74228 210.2511,93.898397 205.23373,44.33735" style="opacity:0.5;fill:none;stroke:#ffffff;stroke-width:2"/>
   <path style="opacity:0.5;fill:none;stroke:#ffffff;stroke-width:2" d="M 163.82273,267.66265 C 95.21401,216.31833 89.700659,144.77673 101.52393,44.33735"/>
   <circle style="fill:#ffffff;filter:url(#filter1128)" cx="98" cy="134" r="4"/>
   <circle cx="118" cy="214" r="4" style="fill:#ffffff;filter:url(#filter1132)"/>
   <circle style="fill:#ffffff;filter:url(#filter1136)" cx="178" cy="174" r="4"/>
   <circle cx="198" cy="114" r="4" style="fill:#ffffff;filter:url(#filter1140)"/>
   <path style="opacity:0.5;fill:none;stroke:#ffffff;stroke-width:2" d="M 177.43876,173.81273 C 133.8872,228.30601 44.536124,229.74909 33.567598,222.885"/>
  </g>
  <path d="M 361.9375,-212 C 507.2348,-212 528,-191.28677 528,-46.125 V 70.125 C 528,215.28618 507.2348,236 361.9375,236 H 214.0625 C 68.7652,236 48,215.28618 48,70.125 V -46.125 C 48,-191.28677 68.7652,-212 214.0625,-212 Z" clip-path="url(#clipPath1082-3-367)" transform="matrix(0.13229167,0,0,0.13229167,-4.876802,261.66013)" style="opacity:0.4;fill:none;stroke:url(#linearGradient1108);stroke-width:8;stroke-linecap:round;stroke-linejoin:round"/>
 </g>
</svg>
